symbols/web/chair_alt/materialsymbolsoutlined/chair_alt_wght200_24px.svg

<svg xmlns="http://www.w3.org/2000/svg" height="24" width="24"><path d="M6.375 19.8v-5.95q0-.7.463-1.162.462-.463 1.162-.463h.875V10.15H8q-.7 0-1.162-.462-.463-.463-.463-1.138V6.2q0-.7.463-1.163Q7.3 4.575 8 4.575h8q.7 0 1.163.462.462.463.462 1.163v2.35q0 .675-.462 1.138-.463.462-1.163.462h-.875v2.075H16q.7 0 1.163.463.462.462.462 1.162v5.95h-1v-3h-9.25v3ZM8 9.15h8q.225 0 .425-.188.2-.187.2-.412V6.2q0-.25-.2-.438-.2-.187-.425-.187H8q-.225 0-.425.187-.2.188-.2.438v2.35q0 .225.2.412.2.188.425.188Zm1.875 3.075h4.25V10.15h-4.25Zm-2.5 3.575h9.25v-1.95q0-.225-.2-.425-.2-.2-.425-.2H8q-.225 0-.425.2-.2.2-.2.425Zm0-6.65V5.575 9.15Zm0 6.65v-2.575V15.8Z"/></svg>

<svg xmlns="http://www.w3.org/2000/svg" height="24" width="24"><path d="M6.375 19.8V13.85Q6.375 13.15 6.838 12.688Q7.3 12.225 8 12.225H8.875V10.15H8Q7.3 10.15 6.838 9.688Q6.375 9.225 6.375 8.55V6.2Q6.375 5.5 6.838 5.037Q7.3 4.575 8 4.575H16Q16.7 4.575 17.163 5.037Q17.625 5.5 17.625 6.2V8.55Q17.625 9.225 17.163 9.688Q16.7 10.15 16 10.15H15.125V12.225H16Q16.7 12.225 17.163 12.688Q17.625 13.15 17.625 13.85V19.8H16.625V16.8H7.375V19.8ZM8 9.15H16Q16.225 9.15 16.425 8.962Q16.625 8.775 16.625 8.55V6.2Q16.625 5.95 16.425 5.762Q16.225 5.575 16 5.575H8Q7.775 5.575 7.575 5.762Q7.375 5.95 7.375 6.2V8.55Q7.375 8.775 7.575 8.962Q7.775 9.15 8 9.15ZM9.875 12.225H14.125V10.15H9.875ZM7.375 15.8H16.625V13.85Q16.625 13.625 16.425 13.425Q16.225 13.225 16 13.225H8Q7.775 13.225 7.575 13.425Q7.375 13.625 7.375 13.85ZM7.375 9.15Q7.375 9.15 7.375 8.962Q7.375 8.775 7.375 8.55V6.2Q7.375 5.95 7.375 5.762Q7.375 5.575 7.375 5.575Q7.375 5.575 7.375 5.762Q7.375 5.95 7.375 6.2V8.55Q7.375 8.775 7.375 8.962Q7.375 9.15 7.375 9.15ZM7.375 15.8V13.85Q7.375 13.625 7.375 13.425Q7.375 13.225 7.375 13.225Q7.375 13.225 7.375 13.425Q7.375 13.625 7.375 13.85V15.8Z"/></svg>
